src/images/logoSpinning.svg

<?xml version="1.0" encoding="UTF-8" standalone="no"?>
<svg xmlns="http://www.w3.org/2000/svg" viewBox="0 0 74.841927 37.968513">
  <g transform="translate(-57.610061,-104.80183)" id="layer1">
    <path
      d="m 95.210653,137.38557 c 0,0 9.852167,-3.3399 18.596997,-3.3399 8.74482,0 17.50572,3.15404 18.20912,3.45021 0.7034,0.29616 0.48128,1.14764 -0.14808,1.18467 -0.62936,0.037 -72.005841,0.28438 -72.6762,0.35142 -0.670356,0.067 -0.837943,-0.87147 -0.167587,-1.17313 0.670356,-0.30166 7.776136,-3.82103 18.501841,-3.85455 10.725708,-0.0335 17.683909,3.38128 17.683909,3.38128 z"
      style="fill:#00aeef;fill-opacity:1;stroke:none;" id="path931" />
    <path
      d="m 58.719246,140.77682 c 0,0 71.640604,-0.21535 72.744904,-0.21535 1.1043,0 1.36723,1.78791 0.21034,1.78791 -1.15688,0 -71.294923,0.41991 -72.831136,0.42069 -1.736307,0.0274 -1.510274,-1.98824 -0.124108,-1.99325 z"
      style="fill:#00aeef;fill-opacity:1;stroke:none;" id="path933" />
    <path transform="matrix(0.26458333,0,0,0.26458333,57.610061,104.80183)"
       d="M 70.640625,0.00195313 C 15.958765,-0.35989717 4.6246904,37.618172 4.7304688,56.908203 4.8396971,76.820493 16.642714,110.31641 50.455078,110.31641 c 33.812372,0 42.921875,-28.740238 42.921875,-28.740238 0,0 -16.302084,19.119488 -42.507812,20.029298 C 33.303745,101.30311 19.44807,88.589529 17.90625,69.191406 16.62019,53.011249 28.308715,36.319686 43.283203,26.671875 c 14.974405,-9.647811 44.343902,-15.880461 69.212887,4.494141 24.86901,20.374601 29.61719,91.984374 29.61719,91.984374 0.1101,-13.0083 0.14997,-22.88033 0.17188,-31.144531 0.0219,8.264201 -0.28277,18.136991 -0.17268,31.145281 0,0 5.09275,-71.610523 29.96174,-91.985124 24.86899,-20.374602 54.24043,-14.141952 69.21484,-4.494141 14.97449,9.647811 26.66302,26.339374 25.37696,42.519531 -1.54182,19.398123 -15.39946,32.111704 -32.96485,32.414064 -26.20573,-0.90981 -42.50781,-20.029298 -42.50781,-20.029298 0,0 9.11146,28.740238 42.92383,28.740238 33.81237,0 45.61538,-33.495917 45.72461,-53.408207 0.10919,-19.91229 -11.97089,-59.7360656 -71.33789,-56.74804675 -59.367,2.98801885 -66.21875,70.19531275 -66.21875,70.19531275 0,0 -6.84979,-67.2072939 -66.216801,-70.19531275 C 74.213141,0.06678066 72.404556,0.01362572 70.640625,0.00195313 Z"
      style="fill:#00aeef;fill-opacity:1;stroke:none;" id="path929-4-6" />
    <path
      d="m 119.33565,110.01276 c -0.63151,-3e-5 -1.26203,0.0499 -1.88567,0.14935 1.55598,0.43755 6.02446,0.49065 9.04845,4.93292 2.02141,2.96945 2.5521,8.17372 -0.65427,12.30341 -3.88078,6.15295 -12.606,2.36039 -14.3411,0.16726 -1.7351,-2.19312 -2.53082,-7.10072 1.13791,-9.4263 3.66873,-2.32558 8.28908,0.71049 8.49716,2.93005 0.2079,2.21757 -1.07306,5.62367 -4.43125,4.76767 -3.3582,-0.85599 -2.40262,-4.784 -2.02004,-5.20692 0.27882,-0.30822 -0.0753,-0.7048 -0.40462,-0.39481 -1.10747,1.0426 -1.42298,3.96497 0.2036,5.6932 1.62658,1.72824 5.38798,1.21973 7.01456,-0.5085 1.62658,-1.72824 2.10366,-5.36619 -0.44597,-8.02225 -2.54963,-2.65606 -6.96926,-3.2347 -10.49393,-0.71623 -1.99998,1.42904 -2.88727,3.88551 -3.17035,6.07818 0.40946,6.29633 5.63589,11.19379 11.94552,11.19363 3.27577,-3e-5 6.40841,-1.34251 8.66769,-3.7145 1.60464,-1.87767 2.61968,-4.20823 3.16312,-6.43372 0.0929,-0.60293 0.13951,-1.21207 0.13952,-1.82211 -7e-5,-6.611 -5.35932,-11.97026 -11.97033,-11.97033 z"
      style="fill:#00aeef;fill-opacity:1;stroke:none;" id="path929-4-6-4">
      <animateTransform attributeType="xml" attributeName="transform" type="rotate"
        from="0 118.8 121.8" to="360 118.8 121.8" dur=".7s" 
        additive="sum" repeatCount="indefinite" />
    </path>
    <path id="path929-4-6-4-7" style="fill:#00aeef;fill-opacity:1;stroke:none;"
      d="m 71.177491,110.01276 c 0.631513,-4e-5 1.262038,0.0499 1.885672,0.14934 -1.555975,0.43755 -6.024459,0.49066 -9.048449,4.93292 -2.02141,2.96945 -2.5521,8.17373 0.65427,12.30342 3.88078,6.15295 12.606001,2.36038 14.341102,0.16725 1.735101,-2.19312 2.530816,-7.10071 -1.137915,-9.42629 -3.668727,-2.32558 -8.289077,0.71049 -8.497157,2.93005 -0.2079,2.21757 1.073065,5.62367 4.431255,4.76767 3.358193,-0.85599 2.402612,-4.784 2.020033,-5.20692 -0.278821,-0.30822 0.07534,-0.7048 0.404627,-0.39481 1.107469,1.0426 1.422974,3.96496 -0.203605,5.69319 -1.626581,1.72824 -5.38798,1.21974 -7.01456,-0.50849 -1.62658,-1.72824 -2.10366,-5.36619 0.44597,-8.02225 2.549628,-2.65606 6.969262,-3.23471 10.49393,-0.71624 1.999985,1.42904 2.887276,3.88552 3.170351,6.07819 -0.409463,6.29633 -5.635888,11.19379 -11.945524,11.19363 -3.275767,-3e-5 -6.408407,-1.34251 -8.667687,-3.7145 -1.60464,-1.87767 -2.61968,-4.20823 -3.16312,-6.43372 -0.0929,-0.60293 -0.13951,-1.21207 -0.13952,-1.82211 7e-5,-6.611 5.35933,-11.97026 11.970327,-11.97033 z">
      <animateTransform attributeType="xml" attributeName="transform" type="rotate"
        from="360 71.4 121.8" to="0 71.4 121.8" dur=".9s"
        additive="sum" repeatCount="indefinite" />
    </path>
  </g>
</svg>

<?xml version="1.0" encoding="UTF-8" standalone="no"?>
<svg xmlns="http://www.w3.org/2000/svg" viewBox="0 0 74.841927 37.968513">
  <g transform="translate(-57.610061,-104.80183)" id="layer1">
    <path
      d="m 95.210653,137.38557 c 0,0 9.852167,-3.3399 18.596997,-3.3399 8.74482,0 17.50572,3.15404 18.20912,3.45021 0.7034,0.29616 0.48128,1.14764 -0.14808,1.18467 -0.62936,0.037 -72.005841,0.28438 -72.6762,0.35142 -0.670356,0.067 -0.837943,-0.87147 -0.167587,-1.17313 0.670356,-0.30166 7.776136,-3.82103 18.501841,-3.85455 10.725708,-0.0335 17.683909,3.38128 17.683909,3.38128 z"
      style="fill:#00aeef;fill-opacity:1;stroke:none;" id="path931" />
    <path
      d="m 58.719246,140.77682 c 0,0 71.640604,-0.21535 72.744904,-0.21535 1.1043,0 1.36723,1.78791 0.21034,1.78791 -1.15688,0 -71.294923,0.41991 -72.831136,0.42069 -1.736307,0.0274 -1.510274,-1.98824 -0.124108,-1.99325 z"
      style="fill:#00aeef;fill-opacity:1;stroke:none;" id="path933" />
    <path transform="matrix(0.26458333,0,0,0.26458333,57.610061,104.80183)"
      d="M 70.640625 0.001953125 C 15.958765 -0.35989717 4.6246904 37.618172 4.7304688 56.908203 C 4.8396971 76.820493 16.642714 110.31641 50.455078 110.31641 C 84.26745 110.31641 93.376953 81.576172 93.376953 81.576172 C 93.376953 81.576172 77.074869 100.69566 50.869141 101.60547 C 33.303745 101.30311 19.44807 88.589529 17.90625 69.191406 C 16.62019 53.011249 28.308715 36.319686 43.283203 26.671875 C 58.257608 17.024064 87.627105 10.791414 112.49609 31.166016 C 137.3651 51.540617 142.11328 123.15039 142.11328 123.15039 C 142.22338 110.14209 142.26325 100.27006 142.28516 92.005859 C 142.30706 100.27006 142.34889 110.1421 142.45898 123.15039 C 142.45898 123.15039 147.20523 51.540617 172.07422 31.166016 C 196.94321 10.791414 226.31465 17.024064 241.28906 26.671875 C 256.26355 36.319686 267.95208 53.011249 266.66602 69.191406 C 265.1242 88.589529 251.26656 101.30311 233.70117 101.60547 C 207.49544 100.69566 191.19336 81.576172 191.19336 81.576172 C 191.19336 81.576172 200.30482 110.31641 234.11719 110.31641 C 267.92956 110.31641 279.73257 76.820493 279.8418 56.908203 C 279.95099 36.995913 267.87091 -2.8278626 208.50391 0.16015625 C 149.13691 3.1481751 142.28516 70.355469 142.28516 70.355469 C 142.28516 70.355469 135.43537 3.1481751 76.068359 0.16015625 C 74.213141 0.066780659 72.404556 0.013625715 70.640625 0.001953125 z "
      style="fill:#00aeef;fill-opacity:1;stroke:none;" id="path929-4-6" />
    <path
      d="m 119.33565,110.01276 c -0.63151,-3e-5 -1.26203,0.0499 -1.88567,0.14935 1.55598,0.43755 6.02446,0.49065 9.04845,4.93292 2.02141,2.96945 2.5521,8.17372 -0.65427,12.30341 -3.88078,6.15295 -12.606,2.36039 -14.3411,0.16726 -1.7351,-2.19312 -2.53082,-7.10072 1.13791,-9.4263 3.66873,-2.32558 8.28908,0.71049 8.49716,2.93005 0.2079,2.21757 -1.07306,5.62367 -4.43125,4.76767 -3.3582,-0.85599 -2.40262,-4.784 -2.02004,-5.20692 0.27882,-0.30822 -0.0753,-0.7048 -0.40462,-0.39481 -1.10747,1.0426 -1.42298,3.96497 0.2036,5.6932 1.62658,1.72824 5.38798,1.21973 7.01456,-0.5085 1.62658,-1.72824 2.10366,-5.36619 -0.44597,-8.02225 -2.54963,-2.65606 -6.96926,-3.2347 -10.49393,-0.71623 -1.99998,1.42904 -2.88727,3.88551 -3.17035,6.07818 0.40946,6.29633 5.63589,11.19379 11.94552,11.19363 3.27577,-3e-5 6.40841,-1.34251 8.66769,-3.7145 1.60464,-1.87767 2.61968,-4.20823 3.16312,-6.43372 0.0929,-0.60293 0.13951,-1.21207 0.13952,-1.82211 -7e-5,-6.611 -5.35932,-11.97026 -11.97033,-11.97033 z"
      style="fill:#00aeef;fill-opacity:1;stroke:none;" id="path929-4-6-4">
      <animateTransform attributeType="xml" attributeName="transform" type="rotate"
        from="0 118.8 121.8" to="360 118.8 121.8" dur="1.5s" 
        additive="sum" repeatCount="indefinite" />
    </path>
    <path id="path929-4-6-4-7" style="fill:#00aeef;fill-opacity:1;stroke:none;"
      d="m 71.177491,110.01276 c 0.631513,-4e-5 1.262038,0.0499 1.885672,0.14934 -1.555975,0.43755 -6.024459,0.49066 -9.048449,4.93292 -2.02141,2.96945 -2.5521,8.17373 0.65427,12.30342 3.88078,6.15295 12.606001,2.36038 14.341102,0.16725 1.735101,-2.19312 2.530816,-7.10071 -1.137915,-9.42629 -3.668727,-2.32558 -8.289077,0.71049 -8.497157,2.93005 -0.2079,2.21757 1.073065,5.62367 4.431255,4.76767 3.358193,-0.85599 2.402612,-4.784 2.020033,-5.20692 -0.278821,-0.30822 0.07534,-0.7048 0.404627,-0.39481 1.107469,1.0426 1.422974,3.96496 -0.203605,5.69319 -1.626581,1.72824 -5.38798,1.21974 -7.01456,-0.50849 -1.62658,-1.72824 -2.10366,-5.36619 0.44597,-8.02225 2.549628,-2.65606 6.969262,-3.23471 10.49393,-0.71624 1.999985,1.42904 2.887276,3.88552 3.170351,6.07819 -0.409463,6.29633 -5.635888,11.19379 -11.945524,11.19363 -3.275767,-3e-5 -6.408407,-1.34251 -8.667687,-3.7145 -1.60464,-1.87767 -2.61968,-4.20823 -3.16312,-6.43372 -0.0929,-0.60293 -0.13951,-1.21207 -0.13952,-1.82211 7e-5,-6.611 5.35933,-11.97026 11.970327,-11.97033 z">
      <animateTransform attributeType="xml" attributeName="transform" type="rotate"
        from="360 71.4 121.8" to="0 71.4 121.8" dur="1.5s"
        additive="sum" repeatCount="indefinite" />
    </path>
  </g>
</svg>
